lib/svgs/usercase-planning.svg

<?xml version="1.0" encoding="UTF-8"?>
<svg width="16px" height="16px" viewBox="0 0 16 16" version="1.1" xmlns="http://www.w3.org/2000/svg" xmlns:xlink="http://www.w3.org/1999/xlink">
    <!-- Generator: sketchtool 51.3 (57544) - http://www.bohemiancoding.com/sketch -->
    <title>test-case/usercase-planning</title>
    <desc>Created with sketchtool.</desc>
    <defs></defs>
    <g id="Icons" stroke="none" stroke-width="1" fill="none" fill-rule="evenodd">
        <g id="Artboard" transform="translate(-249.000000, -213.000000)" fill="#000000" fill-rule="nonzero">
            <g id="test-case/usercase-planning" transform="translate(249.000000, 213.000000)">
                <path d="M13.8803874,13.1046616 L13.2366039,12.460878 C12.9994144,12.2236885 12.9994144,11.8391283 13.2366039,11.6019388 C13.4737934,11.3647493 13.8583536,11.3647493 14.0955431,11.6019388 L15.7766337,13.2830294 C16.0138707,13.5202664 16.0138163,13.9049203 15.7765122,14.1420902 L14.0954216,15.8222294 C13.8581649,16.0593518 13.4736047,16.0592429 13.2364824,15.8219863 C12.99936,15.5847296 12.9994688,15.2001694 13.2367255,14.9630471 L13.8807519,14.3193851 L1.96456224,14.3193851 C0.879359193,14.3193851 0,13.4400259 0,12.3548229 L0,1.94775133 C0,0.872578041 0.871570445,0 1.94663061,0 L6.05857821,0 C6.69361851,0 7.25389802,0.417265222 7.4193889,0.977613403 L7.85840483,2.09773633 C7.88859632,2.19806012 7.98023338,2.26611012 8.08485274,2.26611012 L13.9899636,2.26611012 C15.0751082,2.26611012 15.9545259,3.14653113 15.9545259,4.23179309 L15.9545259,9.30348807 C15.9545259,9.63892471 15.6826008,9.91084983 15.3471641,9.91084983 C15.0117275,9.91084983 14.7398024,9.63892471 14.7398024,9.30348807 L14.7398024,4.23179309 C14.7398024,3.81709454 14.4039247,3.48083365 13.9899636,3.48083365 L8.08485274,3.48083365 C7.44442971,3.48083365 6.87994718,3.06164692 6.71171404,2.49537516 L6.27244546,1.37441047 C6.24409397,1.27970444 6.15684137,1.21472353 6.05857821,1.21472353 L1.94663061,1.21472353 C1.54275811,1.21472353 1.21472353,1.54313734 1.21472353,1.94775133 L1.21472353,12.3548229 C1.21472353,12.7691526 1.55023247,13.1046616 1.96456224,13.1046616 L13.8803874,13.1046616 Z M10.4823683,5.93194238 C10.7195212,5.69471631 11.1040814,5.69465705 11.3413075,5.93181002 C11.5785336,6.16896298 11.5785928,6.55352318 11.3414399,6.79074925 L7.70580127,10.4275086 C7.46862246,10.6647605 7.08401121,10.6647901 6.84679584,10.4275748 L4.7039657,8.28474462 C4.46677617,8.04755509 4.46677617,7.6629949 4.7039657,7.42580537 C4.94115522,7.18861585 5.32571542,7.18861585 5.56290494,7.42580537 L7.27619928,9.13909971 L10.4823683,5.93194238 Z" id="usercase-planning"></path>
            </g>
        </g>
    </g>
</svg>

<svg xmlns="http://www.w3.org/2000/svg" viewBox="0 0 16 16">
    <path d="M13.88 13.105l-.643-.644a.607.607 0 0 1 .859-.86l1.68 1.682a.607.607 0 0 1 0 .86l-1.68 1.68a.607.607 0 0 1-.86-.86l.645-.644H1.965A1.964 1.964 0 0 1 0 12.355V1.948C0 .873.872 0 1.947 0h4.112a1.42 1.42 0 0 1 1.36.978l.44 1.12c.03.1.121.168.226.168h5.905c1.085 0 1.965.88 1.965 1.966v5.071a.607.607 0 1 1-1.215 0V4.232a.75.75 0 0 0-.75-.751H8.085c-.64 0-1.205-.42-1.373-.986l-.44-1.12a.224.224 0 0 0-.213-.16H1.947a.733.733 0 0 0-.732.733v10.407c0 .414.335.75.75.75H13.88zm-3.398-7.173a.607.607 0 1 1 .86.859l-3.636 3.637a.607.607 0 0 1-.86 0L4.705 8.285a.607.607 0 1 1 .859-.86L7.276 9.14l3.206-3.207z"/>
</svg>
